newicons/tomatino.svg

<?xml version="1.0" encoding="UTF-8" standalone="no"?>
<svg
   viewBox="0 0 48 48"
   version="1.1"
   id="svg1"
   xml:space="preserve"
   xmlns="http://www.w3.org/2000/svg"
   xmlns:svg="http://www.w3.org/2000/svg"><defs
     id="defs1"><style
       id="style1">.a{fill:none;stroke:#fff;stroke-linecap:round;stroke-linejoin:round;}</style></defs><circle
     class="a"
     cx="24"
     cy="24"
     r="21.5"
     id="circle1" /><path
     style="fill:#000000;fill-opacity:0;stroke:#ffffff;stroke-width:1;stroke-linejoin:round;stroke-dasharray:none;stroke-opacity:1"
     d="M 22.06568,9.4461776 25.90319,20.958707 36.899131,12.767099 28.412331,23.541646 38.817886,29.7407 26.788769,26.714971 27.748146,38.448894 23.467847,27.379155 11.733924,34.537587 20.589715,24.870014 9.5937741,17.194995 21.844286,21.2539 Z"
     id="path1" /></svg>

<?xml version="1.0" encoding="UTF-8"?><svg id="b" xmlns="http://www.w3.org/2000/svg" viewBox="0 0 48 48"><defs><style>.e{fill:none;stroke:#fff;stroke-linecap:round;stroke-linejoin:round;}</style></defs><circle id="c" class="e" cx="24" cy="24" r="21.5"/><path id="d" class="e" d="M22.0657,9.4462l3.8375,11.5125,10.9959-8.1916-8.4868,10.7745,10.4056,6.1991-12.0291-3.0257.9594,11.7339-4.2803-11.0697-11.7339,7.1584,8.8558-9.6676-10.9959-7.675,12.2505,4.0589.2214-11.8077Z"/></svg>
